assets/img/main/trust/chance.svg

<svg width="934" height="100" viewBox="0 0 934 100" fill="none" xmlns="http://www.w3.org/2000/svg">
<path d="M26.288 97V24.296L32.816 30.824H0.0480001V7.39999H82.224V30.824H49.456L55.984 24.296V97H26.288ZM136.504 99.048C129.251 99.048 122.509 97.896 116.28 95.592C110.136 93.288 104.803 90.0453 100.28 85.864C95.7573 81.5973 92.216 76.6053 89.656 70.888C87.1813 65.1707 85.944 58.9413 85.944 52.2C85.944 45.3733 87.1813 39.144 89.656 33.512C92.216 27.7947 95.7573 22.8453 100.28 18.664C104.803 14.3973 110.136 11.112 116.28 8.808C122.509 6.504 129.251 5.352 136.504 5.352C143.843 5.352 150.584 6.504 156.728 8.808C162.872 11.112 168.205 14.3973 172.728 18.664C177.251 22.8453 180.749 27.7947 183.224 33.512C185.784 39.144 187.064 45.3733 187.064 52.2C187.064 58.9413 185.784 65.1707 183.224 70.888C180.749 76.6053 177.251 81.5973 172.728 85.864C168.205 90.0453 162.872 93.288 156.728 95.592C150.584 97.896 143.843 99.048 136.504 99.048ZM136.504 74.6C139.32 74.6 141.923 74.088 144.312 73.064C146.787 72.04 148.92 70.5893 150.712 68.712C152.589 66.7493 154.04 64.4027 155.064 61.672C156.088 58.856 156.6 55.6987 156.6 52.2C156.6 48.7013 156.088 45.5867 155.064 42.856C154.04 40.04 152.589 37.6933 150.712 35.816C148.92 33.8533 146.787 32.36 144.312 31.336C141.923 30.312 139.32 29.8 136.504 29.8C133.688 29.8 131.043 30.312 128.568 31.336C126.179 32.36 124.045 33.8533 122.168 35.816C120.376 37.6933 118.968 40.04 117.944 42.856C116.92 45.5867 116.408 48.7013 116.408 52.2C116.408 55.6987 116.92 58.856 117.944 61.672C118.968 64.4027 120.376 66.7493 122.168 68.712C124.045 70.5893 126.179 72.04 128.568 73.064C131.043 74.088 133.688 74.6 136.504 74.6ZM243.504 99.048C236.251 99.048 229.509 97.896 223.28 95.592C217.136 93.288 211.803 90.0453 207.28 85.864C202.757 81.5973 199.216 76.6053 196.656 70.888C194.181 65.1707 192.944 58.9413 192.944 52.2C192.944 45.3733 194.181 39.144 196.656 33.512C199.216 27.7947 202.757 22.8453 207.28 18.664C211.803 14.3973 217.136 11.112 223.28 8.808C229.509 6.504 236.251 5.352 243.504 5.352C250.843 5.352 257.584 6.504 263.728 8.808C269.872 11.112 275.205 14.3973 279.728 18.664C284.251 22.8453 287.749 27.7947 290.224 33.512C292.784 39.144 294.064 45.3733 294.064 52.2C294.064 58.9413 292.784 65.1707 290.224 70.888C287.749 76.6053 284.251 81.5973 279.728 85.864C275.205 90.0453 269.872 93.288 263.728 95.592C257.584 97.896 250.843 99.048 243.504 99.048ZM243.504 74.6C246.32 74.6 248.923 74.088 251.312 73.064C253.787 72.04 255.92 70.5893 257.712 68.712C259.589 66.7493 261.04 64.4027 262.064 61.672C263.088 58.856 263.6 55.6987 263.6 52.2C263.6 48.7013 263.088 45.5867 262.064 42.856C261.04 40.04 259.589 37.6933 257.712 35.816C255.92 33.8533 253.787 32.36 251.312 31.336C248.923 30.312 246.32 29.8 243.504 29.8C240.688 29.8 238.043 30.312 235.568 31.336C233.179 32.36 231.045 33.8533 229.168 35.816C227.376 37.6933 225.968 40.04 224.944 42.856C223.92 45.5867 223.408 48.7013 223.408 52.2C223.408 55.6987 223.92 58.856 224.944 61.672C225.968 64.4027 227.376 66.7493 229.168 68.712C231.045 70.5893 233.179 72.04 235.568 73.064C238.043 74.088 240.688 74.6 243.504 74.6ZM369.807 2.02399L359.055 37.992L354.831 21.864C359.866 21.864 363.919 23.272 366.991 26.088C370.148 28.904 371.727 32.8293 371.727 37.864C371.727 42.8133 370.106 46.7813 366.863 49.768C363.706 52.7547 359.695 54.248 354.831 54.248C349.967 54.248 345.914 52.7547 342.671 49.768C339.514 46.7813 337.935 42.8133 337.935 37.864C337.935 36.4987 338.02 35.1333 338.191 33.768C338.447 32.4027 338.916 30.7387 339.599 28.776C340.367 26.8133 341.476 24.2533 342.927 21.096L351.887 2.02399H369.807ZM406.927 2.02399L396.175 37.992L391.951 21.864C396.986 21.864 401.039 23.272 404.111 26.088C407.268 28.904 408.847 32.8293 408.847 37.864C408.847 42.8133 407.226 46.7813 403.983 49.768C400.826 52.7547 396.815 54.248 391.951 54.248C387.087 54.248 383.034 52.7547 379.791 49.768C376.634 46.7813 375.055 42.8133 375.055 37.864C375.055 36.4987 375.14 35.1333 375.311 33.768C375.567 32.4027 376.036 30.7387 376.719 28.776C377.487 26.8133 378.596 24.2533 380.047 21.096L389.007 2.02399H406.927ZM473.583 73.576L467.055 80.104V7.39999H496.751V80.104L490.095 73.576H521.327L514.671 80.104V7.39999H544.367V97H419.311V7.39999H449.007V80.104L442.479 73.576H473.583ZM552.634 97L591.802 7.39999H621.498L660.666 97H629.434L600.506 21.736H612.282L583.354 97H552.634ZM575.93 81.384L583.61 59.624H624.826L632.506 81.384H575.93ZM727.048 7.39999H757.256V97H727.048V7.39999ZM699.144 97H668.936V7.39999H699.144V97ZM729.096 63.976H697.096V39.144H729.096V63.976ZM818.242 99.048C811.074 99.048 804.418 97.9387 798.274 95.72C792.215 93.416 786.925 90.1733 782.402 85.992C777.965 81.8107 774.509 76.8613 772.034 71.144C769.559 65.4267 768.322 59.112 768.322 52.2C768.322 45.288 769.559 38.9733 772.034 33.256C774.509 27.5387 777.965 22.5893 782.402 18.408C786.925 14.2267 792.215 11.0267 798.274 8.808C804.418 6.504 811.074 5.352 818.242 5.352C827.031 5.352 834.797 6.888 841.538 9.96C848.365 13.032 853.997 17.4693 858.434 23.272L839.362 40.296C836.717 36.968 833.773 34.408 830.53 32.616C827.373 30.7387 823.789 29.8 819.778 29.8C816.621 29.8 813.762 30.312 811.202 31.336C808.642 32.36 806.423 33.8533 804.546 35.816C802.754 37.7787 801.346 40.168 800.322 42.984C799.298 45.7147 798.786 48.7867 798.786 52.2C798.786 55.6133 799.298 58.728 800.322 61.544C801.346 64.2747 802.754 66.6213 804.546 68.584C806.423 70.5467 808.642 72.04 811.202 73.064C813.762 74.088 816.621 74.6 819.778 74.6C823.789 74.6 827.373 73.704 830.53 71.912C833.773 70.0347 836.717 67.432 839.362 64.104L858.434 81.128C853.997 86.8453 848.365 91.2827 841.538 94.44C834.797 97.512 827.031 99.048 818.242 99.048ZM864.73 52.968L875.482 17L879.706 33.128C874.757 33.128 870.703 31.72 867.546 28.904C864.389 26.0027 862.81 22.0773 862.81 17.128C862.81 12.0933 864.389 8.12533 867.546 5.224C870.789 2.23733 874.842 0.743996 879.706 0.743996C884.57 0.743996 888.581 2.23733 891.738 5.224C894.981 8.12533 896.602 12.0933 896.602 17.128C896.602 18.4933 896.474 19.8587 896.218 21.224C896.047 22.5893 895.621 24.2533 894.938 26.216C894.255 28.0933 893.146 30.6533 891.61 33.896L882.65 52.968H864.73ZM901.85 52.968L912.602 17L916.826 33.128C911.877 33.128 907.823 31.72 904.666 28.904C901.509 26.0027 899.93 22.0773 899.93 17.128C899.93 12.0933 901.509 8.12533 904.666 5.224C907.909 2.23733 911.962 0.743996 916.826 0.743996C921.69 0.743996 925.701 2.23733 928.858 5.224C932.101 8.12533 933.722 12.0933 933.722 17.128C933.722 18.4933 933.594 19.8587 933.338 21.224C933.167 22.5893 932.741 24.2533 932.058 26.216C931.375 28.0933 930.266 30.6533 928.73 33.896L919.77 52.968H901.85Z" fill="#101010"/>
</svg>

<svg width="934" height="100" fill="none" xmlns="http://www.w3.org/2000/svg"><path d="M26.288 97V24.296l6.528 6.528H.048V7.4h82.176v23.424H49.456l6.528-6.528V97H26.288zm110.216 2.048c-7.253 0-13.995-1.152-20.224-3.456-6.144-2.304-11.477-5.547-16-9.728-4.523-4.267-8.064-9.259-10.624-14.976-2.475-5.717-3.712-11.947-3.712-18.688 0-6.827 1.237-13.056 3.712-18.688 2.56-5.717 6.101-10.667 10.624-14.848 4.523-4.267 9.856-7.552 16-9.856 6.229-2.304 12.971-3.456 20.224-3.456 7.339 0 14.08 1.152 20.224 3.456 6.144 2.304 11.477 5.59 16 9.856 4.523 4.181 8.021 9.13 10.496 14.848 2.56 5.632 3.84 11.861 3.84 18.688 0 6.741-1.28 12.97-3.84 18.688a44.892 44.892 0 01-10.496 14.976c-4.523 4.181-9.856 7.424-16 9.728-6.144 2.304-12.885 3.456-20.224 3.456zm0-24.448c2.816 0 5.419-.512 7.808-1.536 2.475-1.024 4.608-2.475 6.4-4.352 1.877-1.963 3.328-4.31 4.352-7.04 1.024-2.816 1.536-5.973 1.536-9.472 0-3.499-.512-6.613-1.536-9.344-1.024-2.816-2.475-5.163-4.352-7.04a17.745 17.745 0 00-6.4-4.48c-2.389-1.024-4.992-1.536-7.808-1.536s-5.461.512-7.936 1.536c-2.389 1.024-4.523 2.517-6.4 4.48-1.792 1.877-3.2 4.224-4.224 7.04-1.024 2.73-1.536 5.845-1.536 9.344 0 3.499.512 6.656 1.536 9.472 1.024 2.73 2.432 5.077 4.224 7.04a20.283 20.283 0 006.4 4.352c2.475 1.024 5.12 1.536 7.936 1.536zm107 24.448c-7.253 0-13.995-1.152-20.224-3.456-6.144-2.304-11.477-5.547-16-9.728-4.523-4.267-8.064-9.259-10.624-14.976-2.475-5.717-3.712-11.947-3.712-18.688 0-6.827 1.237-13.056 3.712-18.688 2.56-5.717 6.101-10.667 10.624-14.848 4.523-4.267 9.856-7.552 16-9.856 6.229-2.304 12.971-3.456 20.224-3.456 7.339 0 14.08 1.152 20.224 3.456 6.144 2.304 11.477 5.59 16 9.856 4.523 4.181 8.021 9.13 10.496 14.848 2.56 5.632 3.84 11.861 3.84 18.688 0 6.741-1.28 12.97-3.84 18.688a44.892 44.892 0 01-10.496 14.976c-4.523 4.181-9.856 7.424-16 9.728-6.144 2.304-12.885 3.456-20.224 3.456zm0-24.448c2.816 0 5.419-.512 7.808-1.536 2.475-1.024 4.608-2.475 6.4-4.352 1.877-1.963 3.328-4.31 4.352-7.04 1.024-2.816 1.536-5.973 1.536-9.472 0-3.499-.512-6.613-1.536-9.344-1.024-2.816-2.475-5.163-4.352-7.04a17.745 17.745 0 00-6.4-4.48c-2.389-1.024-4.992-1.536-7.808-1.536s-5.461.512-7.936 1.536c-2.389 1.024-4.523 2.517-6.4 4.48-1.792 1.877-3.2 4.224-4.224 7.04-1.024 2.73-1.536 5.845-1.536 9.344 0 3.499.512 6.656 1.536 9.472 1.024 2.73 2.432 5.077 4.224 7.04a20.283 20.283 0 006.4 4.352c2.475 1.024 5.12 1.536 7.936 1.536zM369.807 2.024l-10.752 35.968-4.224-16.128c5.035 0 9.088 1.408 12.16 4.224 3.157 2.816 4.736 6.741 4.736 11.776 0 4.95-1.621 8.917-4.864 11.904-3.157 2.987-7.168 4.48-12.032 4.48s-8.917-1.493-12.16-4.48c-3.157-2.987-4.736-6.955-4.736-11.904 0-1.365.085-2.73.256-4.096.256-1.365.725-3.03 1.408-4.992.768-1.963 1.877-4.523 3.328-7.68l8.96-19.072h17.92zm37.12 0l-10.752 35.968-4.224-16.128c5.035 0 9.088 1.408 12.16 4.224 3.157 2.816 4.736 6.741 4.736 11.776 0 4.95-1.621 8.917-4.864 11.904-3.157 2.987-7.168 4.48-12.032 4.48s-8.917-1.493-12.16-4.48c-3.157-2.987-4.736-6.955-4.736-11.904 0-1.365.085-2.73.256-4.096.256-1.365.725-3.03 1.408-4.992.768-1.963 1.877-4.523 3.328-7.68l8.96-19.072h17.92zm66.656 71.552l-6.528 6.528V7.4h29.696v72.704l-6.656-6.528h31.232l-6.656 6.528V7.4h29.696V97H419.311V7.4h29.696v72.704l-6.528-6.528h31.104zM552.634 97l39.168-89.6h29.696L660.666 97h-31.232l-28.928-75.264h11.776L583.354 97h-30.72zm23.296-15.616l7.68-21.76h41.216l7.68 21.76H575.93zM727.048 7.4h30.208V97h-30.208V7.4zM699.144 97h-30.208V7.4h30.208V97zm29.952-33.024h-32V39.144h32v24.832zm89.146 35.072c-7.168 0-13.824-1.11-19.968-3.328-6.059-2.304-11.349-5.547-15.872-9.728-4.437-4.181-7.893-9.13-10.368-14.848-2.475-5.717-3.712-12.032-3.712-18.944 0-6.912 1.237-13.227 3.712-18.944 2.475-5.717 5.931-10.667 10.368-14.848 4.523-4.181 9.813-7.381 15.872-9.6 6.144-2.304 12.8-3.456 19.968-3.456 8.789 0 16.555 1.536 23.296 4.608 6.827 3.072 12.459 7.51 16.896 13.312l-19.072 17.024c-2.645-3.328-5.589-5.888-8.832-7.68-3.157-1.877-6.741-2.816-10.752-2.816-3.157 0-6.016.512-8.576 1.536a18.713 18.713 0 00-6.656 4.48c-1.792 1.963-3.2 4.352-4.224 7.168-1.024 2.73-1.536 5.803-1.536 9.216 0 3.413.512 6.528 1.536 9.344 1.024 2.73 2.432 5.077 4.224 7.04a18.713 18.713 0 006.656 4.48c2.56 1.024 5.419 1.536 8.576 1.536 4.011 0 7.595-.896 10.752-2.688 3.243-1.877 6.187-4.48 8.832-7.808l19.072 17.024c-4.437 5.717-10.069 10.155-16.896 13.312-6.741 3.072-14.507 4.608-23.296 4.608zm46.488-46.08L875.482 17l4.224 16.128c-4.949 0-9.003-1.408-12.16-4.224-3.157-2.901-4.736-6.827-4.736-11.776 0-5.035 1.579-9.003 4.736-11.904 3.243-2.987 7.296-4.48 12.16-4.48s8.875 1.493 12.032 4.48c3.243 2.901 4.864 6.87 4.864 11.904 0 1.365-.128 2.73-.384 4.096-.171 1.365-.597 3.03-1.28 4.992-.683 1.877-1.792 4.437-3.328 7.68l-8.96 19.072h-17.92zm37.12 0L912.602 17l4.224 16.128c-4.949 0-9.003-1.408-12.16-4.224-3.157-2.901-4.736-6.827-4.736-11.776 0-5.035 1.579-9.003 4.736-11.904 3.243-2.987 7.296-4.48 12.16-4.48s8.875 1.493 12.032 4.48c3.243 2.901 4.864 6.87 4.864 11.904 0 1.365-.128 2.73-.384 4.096-.171 1.365-.597 3.03-1.28 4.992-.683 1.877-1.792 4.437-3.328 7.68l-8.96 19.072h-17.92z" fill="#101010"/></svg>
